Numix/64/mimetypes/application-x-mswinurl.svg

<?xml version="1.0" encoding="UTF-8" standalone="no"?>
<svg
   xmlns:dc="http://purl.org/dc/elements/1.1/"
   xmlns:cc="http://creativecommons.org/ns#"
   xmlns:rdf="http://www.w3.org/1999/02/22-rdf-syntax-ns#"
   xmlns:svg="http://www.w3.org/2000/svg"
   xmlns="http://www.w3.org/2000/svg"
   xmlns:sodipodi="http://sodipodi.sourceforge.net/DTD/sodipodi-0.dtd"
   xmlns:inkscape="http://www.inkscape.org/namespaces/inkscape"
   width="64px"
   height="64px"
   viewBox="0 0 64 64"
   version="1.1"
   id="svg2"
   inkscape:version="0.91 r13725"
   sodipodi:docname="application-x-mswinurl.svg">
  <metadata
     id="metadata15">
    <rdf:RDF>
      <cc:Work
         rdf:about="">
        <dc:format>image/svg+xml</dc:format>
        <dc:type
           rdf:resource="http://purl.org/dc/dcmitype/StillImage" />
        <dc:title />
      </cc:Work>
    </rdf:RDF>
  </metadata>
  <defs
     id="defs13" />
  <sodipodi:namedview
     pagecolor="#ffffff"
     bordercolor="#666666"
     borderopacity="1"
     objecttolerance="10"
     gridtolerance="10"
     guidetolerance="10"
     inkscape:pageopacity="0"
     inkscape:pageshadow="2"
     inkscape:window-width="1920"
     inkscape:window-height="1013"
     id="namedview11"
     showgrid="false"
     inkscape:zoom="8"
     inkscape:cx="44.200802"
     inkscape:cy="10.834524"
     inkscape:window-x="0"
     inkscape:window-y="27"
     inkscape:window-maximized="1"
     inkscape:current-layer="svg2" />
  <g
     id="surface1">
    <path
       style=" stroke:none;fill-rule:nonzero;fill:rgb(86.27451%,86.27451%,86.27451%);fill-opacity:1;"
       d="M 10.671875 0 C 9.296875 0 8 1.355469 8 2.789062 L 8 61.210938 C 8 62.566406 9.375 64 10.671875 64 L 53.328125 64 C 54.625 64 56 62.566406 56 61.210938 L 56 18 L 38 0 Z M 10.671875 0 "
       id="path5" />
    <path
       style=" stroke:none;fill-rule:nonzero;fill:rgb(0%,0%,0%);fill-opacity:0.196078;"
       d="M 42 18 L 56 32 L 56 18 Z M 42 18 "
       id="path7" />
    <path
       style=" stroke:none;fill-rule:nonzero;fill:rgb(100%,100%,100%);fill-opacity:0.392157;"
       d="M 38 0 L 55.984375 18 L 40.757812 18 C 39.410156 18 38 16.574219 38 15.226562 Z M 38 0 "
       id="path9" />
  </g>
  <path
     inkscape:connector-curvature="0"
     style="fill:#888888;fill-opacity:1"
     id="link-2-icon"
     d="m 37.872972,30.127129 c 0.680569,0.680568 0.680569,1.784053 -7e-5,2.46469 l -9.28141,9.281477 c -0.68057,0.680635 -1.784049,0.680568 -2.464619,-6.3e-5 l 0,0 c -0.6807,-0.680568 -0.6807,-1.784054 -7e-5,-2.46462 l 9.28135,-9.281486 c 0.68063,-0.680559 1.78411,-0.680559 2.46482,0 l 0,0 z m -10.66143,15.617046 c -1.36623,1.366292 -3.58925,1.366292 -4.95554,0 -1.36623,-1.366293 -1.36623,-3.589173 0,-4.955543 l 6.57804,-6.570564 c -2.20731,-0.535882 -4.63285,0.05793 -6.35642,1.781537 l -2.5054,2.505325 c -2.62963,2.629493 -2.62963,6.893251 0,9.522946 2.62969,2.629499 6.893321,2.629499 9.52296,0 l 2.50532,-2.505326 c 1.723291,-1.723365 2.317131,-4.148496 1.781671,-6.355538 l -6.57063,6.577163 z m 7.2932,-21.771897 -2.50512,2.505264 c -1.72364,1.723629 -2.32116,4.14537 -1.78535,6.352754 l 6.57425,-6.574311 c 1.366286,-1.366228 3.589163,-1.366228 4.955451,0 1.366302,1.366223 1.366302,3.589174 7e-5,4.955473 l -6.573821,6.573898 c 2.20718,0.535469 4.628843,-0.06145 6.352411,-1.785074 l 2.505329,-2.505325 c 2.629419,-2.629632 2.629419,-6.893188 -2.1e-4,-9.522882 -2.62969,-2.629492 -6.893179,-2.629492 -9.523009,2.03e-4 z" />
</svg>

<svg xmlns="http://www.w3.org/2000/svg" viewBox="0 0 64 64">
 <g>
  <path d="m 10.672 0 c -1.375 0 -2.672 1.355 -2.672 2.789 l 0 58.42 c 0 1.355 1.375 2.789 2.672 2.789 l 42.656 0 c 1.297 0 2.672 -1.434 2.672 -2.789 l 0 -43.21 l -18 -18 m -27.328 0" style="fill:#dcdcdc;fill-opacity:1;stroke:none;fill-rule:nonzero"/>
  <path d="m 42 18 l 14 14 l 0 -14 m -14 0" style="fill:#000;fill-opacity:0.196;stroke:none;fill-rule:nonzero"/>
  <path d="m 38 0 l 17.984 18 l -15.227 0 c -1.348 0 -2.758 -1.426 -2.758 -2.773 m 0 -15.227" style="fill:#fff;fill-opacity:0.392;stroke:none;fill-rule:nonzero"/>
 </g>
 <path d="m 37.873 30.13 c 0.681 0.681 0.681 1.784 0 2.465 l -9.281 9.281 c -0.681 0.681 -1.784 0.681 -2.465 0 l 0 0 c -0.681 -0.681 -0.681 -1.784 0 -2.465 l 9.281 -9.281 c 0.681 -0.681 1.784 -0.681 2.465 0 l 0 0 z m -10.661 15.617 c -1.366 1.366 -3.589 1.366 -4.956 0 -1.366 -1.366 -1.366 -3.589 0 -4.956 l 6.578 -6.571 c -2.207 -0.536 -4.633 0.058 -6.356 1.782 l -2.505 2.505 c -2.63 2.629 -2.63 6.893 0 9.523 2.63 2.629 6.893 2.629 9.523 0 l 2.505 -2.505 c 1.723 -1.723 2.317 -4.148 1.782 -6.356 l -6.571 6.577 z m 7.293 -21.772 -2.505 2.505 c -1.724 1.724 -2.321 4.145 -1.785 6.353 l 6.574 -6.574 c 1.366 -1.366 3.589 -1.366 4.955 0 1.366 1.366 1.366 3.589 0 4.955 l -6.574 6.574 c 2.207 0.535 4.629 -0.061 6.352 -1.785 l 2.505 -2.505 c 2.629 -2.63 2.629 -6.893 0 -9.523 -2.63 -2.629 -6.893 -2.629 -9.523 0 z" style="fill:#888;fill-opacity:1"/>
</svg>
